X:12658
T:Paddy Kelly's
C:Paddy O'Brien (Nenagh)
R:reel
H:There is also a quite different version in Amix, #361
Z:id:hn-reel-657
M:C|
K:Gmix
GABd cABG|DGBd gdBG|F2AF cFAF|F2AF CFAF|
GABd cABA|GAB2 GABc|defd gafd|1 cAFA GDE^F:|2 cAFA G3B||
|:dg~g2 bg~g2|dg~g2 dcBd|cf~f2 af~f2|cf~f2 dcAc|
dg~g2 bg~g2|dg~g2 dcAc|defa gefd|1 cAFA GABc:|2 cAFA GDE^F||
|:G2dG BGdG|G2dG GFDE|F2cF AFcA|F2cF FDCD|
G2dG BGdG|G2dG GFDE|FGAc fefd|1 cA^FA GDEF:|2 cA^FA GABd||
|:g2dg bgdg|g2bg afde|f2cf Afcf|f2af fde^f|
g2dg bgdg|g2bg afde|fefa gefd|1 cA^FA GABd:|2 cA^FA G2 (3DEF||
